drawable_resources/logo.svg

<?xml version="1.0" encoding="UTF-8" standalone="no"?>
<svg
   xmlns:dc="http://purl.org/dc/elements/1.1/"
   xmlns:cc="http://creativecommons.org/ns#"
   xmlns:rdf="http://www.w3.org/1999/02/22-rdf-syntax-ns#"
   xmlns:svg="http://www.w3.org/2000/svg"
   xmlns="http://www.w3.org/2000/svg"
   xmlns:sodipodi="http://sodipodi.sourceforge.net/DTD/sodipodi-0.dtd"
   xmlns:inkscape="http://www.inkscape.org/namespaces/inkscape"
   width="100%"
   height="100%"
   viewBox="0 0 1064 1064"
   version="1.1"
   xml:space="preserve"
   style="fill-rule:evenodd;clip-rule:evenodd;stroke-linejoin:round;stroke-miterlimit:1.41421;"
   id="svg5"
   sodipodi:docname="logo.svg"
   inkscape:version="0.92.1 r15371"><metadata
     id="metadata11"><rdf:RDF><cc:Work
         rdf:about=""><dc:format>image/svg+xml</dc:format><dc:type
           rdf:resource="http://purl.org/dc/dcmitype/StillImage" /></cc:Work></rdf:RDF></metadata><defs
     id="defs9" /><sodipodi:namedview
     pagecolor="#ffffff"
     bordercolor="#666666"
     borderopacity="1"
     objecttolerance="10"
     gridtolerance="10"
     guidetolerance="10"
     inkscape:pageopacity="0"
     inkscape:pageshadow="2"
     inkscape:window-width="1920"
     inkscape:window-height="1005"
     id="namedview7"
     showgrid="false"
     inkscape:zoom="0.22180451"
     inkscape:cx="532"
     inkscape:cy="532"
     inkscape:window-x="-9"
     inkscape:window-y="-9"
     inkscape:window-maximized="1"
     inkscape:current-layer="svg5" /><g
     id="path6"
     transform="translate(-140,-136.064)"><path
       d="M 672.681,456.07 C 579.33,456.08 500.945,519.999 476.995,605.988 456.091,559.995 410.078,527.4 356.617,527.394 283.844,527.404 224.009,587.243 224,660.022 c -0.014,72.793 59.829,132.645 132.617,132.654 53.467,-0.01 99.45,-32.621 120.351,-78.621 23.941,86.004 102.353,149.936 195.716,149.945 92.84,0.01 170.84,-63.23 195.277,-148.499 21.243,45.148 66.549,77.166 119.395,77.172 72.804,0.013 132.654,-59.846 132.644,-132.654 -0.01,-72.794 -59.86,-132.64 -132.644,-132.628 -52.849,0.01 -98.18,32.018 -119.422,77.172 -24.437,-85.266 -102.41,-148.505 -195.25,-148.499 z m 0,77.856 c 70.106,0 126.109,55.987 126.115,126.099 0,70.12 -56,126.131 -126.115,126.125 -70.106,-0.01 -126.094,-56.014 -126.088,-126.125 0.01,-70.103 55.991,-126.09 126.088,-126.099 z M 356.602,605.25 c 30.712,0 54.764,24.059 54.767,54.772 0,30.719 -24.05,54.795 -54.767,54.798 -30.718,0 -54.772,-24.079 -54.766,-54.798 0,-30.713 24.056,-54.769 54.766,-54.772 z m 630.754,0 c 30.714,-0.01 54.794,24.052 54.794,54.772 0.01,30.728 -24.07,54.804 -54.794,54.798 -30.718,0 -54.772,-24.079 -54.769,-54.798 0,-30.713 24.057,-54.769 54.769,-54.772 z"
       style="fill:#ffffff;fill-rule:nonzero"
       id="path2"
       inkscape:connector-curvature="0" /></g></svg>

<?xml version="1.0" encoding="UTF-8" standalone="no"?>
<!DOCTYPE svg PUBLIC "-//W3C//DTD SVG 1.1//EN" "http://www.w3.org/Graphics/SVG/1.1/DTD/svg11.dtd">
<svg width="100%" height="100%" viewBox="0 0 1064 1064" version="1.1" xmlns="http://www.w3.org/2000/svg" xmlns:xlink="http://www.w3.org/1999/xlink" xml:space="preserve" xmlns:serif="http://www.serif.com/" style="fill-rule:evenodd;clip-rule:evenodd;stroke-linejoin:round;stroke-miterlimit:1.41421;">
    <g id="path6" transform="matrix(1,0,0,1,-140,-128.064)">
        <path d="M672.681,456.07C579.33,456.08 500.945,519.999 476.995,605.988C456.091,559.995 410.078,527.4 356.617,527.394C283.844,527.404 224.009,587.243 224,660.022C223.986,732.815 283.829,792.667 356.617,792.676C410.084,792.666 456.067,760.055 476.968,714.055C500.909,800.059 579.321,863.991 672.684,864C765.524,864.01 843.524,800.77 867.961,715.501C889.204,760.649 934.51,792.667 987.356,792.673C1060.16,792.686 1120.01,732.827 1120,660.019C1119.99,587.225 1060.14,527.379 987.356,527.391C934.507,527.401 889.176,559.409 867.934,604.563C843.497,519.297 765.524,456.058 672.684,456.064L672.681,456.07ZM672.681,533.926C742.787,533.926 798.79,589.913 798.796,660.025C798.796,730.145 742.796,786.156 672.681,786.15C602.575,786.14 546.587,730.136 546.593,660.025C546.603,589.922 602.584,533.935 672.681,533.926ZM356.602,605.25C387.314,605.25 411.366,629.309 411.369,660.022C411.369,690.741 387.319,714.817 356.602,714.82C325.884,714.82 301.83,690.741 301.836,660.022C301.836,629.309 325.892,605.253 356.602,605.25ZM987.356,605.25C1018.07,605.24 1042.15,629.302 1042.15,660.022C1042.16,690.75 1018.08,714.826 987.356,714.82C956.638,714.82 932.584,690.741 932.587,660.022C932.587,629.309 956.644,605.253 987.356,605.25Z" style="fill:white;fill-rule:nonzero;"/>
    </g>
</svg>
